src/images/badges/most-viewed-week-line.svg

<svg width="80" height="20" viewBox="0 0 80 20" fill="none" xmlns="http://www.w3.org/2000/svg">
<path d="M79 10C79 5.02944 74.9706 1 70 1L10 1C5.02944 1 1 5.02944 1 10C1 14.9706 5.02944 19 10 19H70C74.9706 19 79 14.9706 79 10Z" fill="#F498AD"/>
<path d="M39.9739 4.33617C39.9739 4.4929 40.0522 4.62351 40.209 4.70187C41.5673 5.45941 42.9518 6.92224 42.9518 9.87401C42.9518 12.8258 41.5934 14.3409 40.209 15.0984C40.0522 15.2029 39.9739 15.3074 39.9739 15.4641C39.9739 15.6731 40.1045 15.8037 40.3135 15.8037C40.3918 15.8037 40.4963 15.8037 40.6792 15.6992C42.142 14.9678 43.8138 13.1392 43.8138 9.90013C43.8138 6.66102 42.142 4.83248 40.6792 4.10107C40.4963 4.0227 40.3918 3.99658 40.3135 3.99658C40.1045 3.99658 39.9739 4.12719 39.9739 4.33617Z" fill="black"/>
<path d="M9.20229 15.4902C9.20229 15.3335 9.12392 15.2029 8.96719 15.1245C7.60885 14.367 6.22439 12.8519 6.22439 9.90013C6.22439 6.94836 7.60885 5.45941 8.96719 4.728C9.12392 4.62351 9.20229 4.51902 9.20229 4.36229C9.20229 4.15331 9.07168 4.02271 8.8627 4.02271C8.78433 4.02271 8.67985 4.02271 8.49699 4.12719C7.03417 4.88473 5.36237 6.68714 5.36237 9.92626C5.36237 13.1654 7.03417 14.9939 8.49699 15.7253C8.67985 15.8037 8.78433 15.8298 8.8627 15.8298C9.07168 15.8298 9.20229 15.6992 9.20229 15.4902Z" fill="black"/>
<path d="M13.3818 7.86252V10.7359C13.3818 12.4077 14.0348 13.113 15.3932 13.1391C15.9156 13.1391 16.4119 13.0347 16.7254 12.904C17.0911 12.7473 17.2478 12.6167 17.2478 12.4077C17.2478 12.1726 17.0911 12.0159 16.8821 12.0159C16.7282 12.0159 16.5927 12.0715 16.3979 12.1514C16.3613 12.1664 16.3226 12.1823 16.2813 12.1988C16.0462 12.2771 15.7066 12.3816 15.3932 12.3816C14.6095 12.3816 14.1916 11.9375 14.1916 10.7098V7.6013C14.1916 7.34008 14.0348 7.18335 13.7736 7.18335H11.3443C11.0569 7.18335 10.9002 7.34008 10.9002 7.54906C10.9002 7.78415 11.0569 7.94088 11.3443 7.94088C11.8406 7.94088 13.0683 7.88864 13.3818 7.86252Z" fill="black"/>
<path fill-rule="evenodd" clip-rule="evenodd" d="M22.1587 12.9042C20.4869 11.6765 18.9719 9.71737 18.9719 8.12394C18.9719 6.84396 19.86 6.13867 20.8004 6.13867C21.6624 6.13867 22.1849 6.50438 22.5244 6.92233C22.864 6.47826 23.4126 6.13867 24.2746 6.13867C25.215 6.13867 26.1031 6.84396 26.1031 8.12394C26.1031 9.71737 24.5881 11.6504 22.9163 12.9042C22.7595 13.0087 22.6551 13.061 22.5244 13.061C22.42 13.061 22.3155 13.0087 22.1587 12.9042ZM20.931 6.89621C20.278 6.89621 19.8078 7.3664 19.8078 8.12394C19.8078 9.35167 21.1661 11.2063 22.5244 12.1206C23.9089 11.2063 25.2672 9.35167 25.2672 8.12394C25.2672 7.3664 24.797 6.89621 24.144 6.89621C23.3603 6.89621 22.864 7.65374 22.5244 8.35903C22.211 7.65374 21.7147 6.89621 20.931 6.89621Z" fill="black"/>
<path d="M30.7528 12.199C30.5961 12.199 30.5177 12.3035 30.4655 12.4341C30.2304 12.9826 29.8124 13.3483 29.081 13.3483C28.4019 13.3483 27.9578 12.9565 27.7488 12.4341C27.6966 12.3035 27.6182 12.199 27.4615 12.199C27.3047 12.199 27.2003 12.3296 27.2003 12.5124C27.2003 12.6953 27.2786 12.9565 27.3831 13.1394C27.6443 13.6096 28.1406 14.132 29.1072 14.132C30.0737 14.132 30.57 13.6096 30.8312 13.1394C30.9357 12.9826 31.0141 12.6953 31.0141 12.5124C31.0141 12.3296 30.9357 12.199 30.7528 12.199Z" fill="black"/>
<path fill-rule="evenodd" clip-rule="evenodd" d="M35.3242 12.9042C33.6524 11.6765 32.1373 9.71737 32.1373 8.12394C32.1373 6.84396 33.0255 6.13867 33.9659 6.13867C34.8279 6.13867 35.3503 6.50438 35.6899 6.92233C36.0295 6.47826 36.5781 6.13867 37.4401 6.13867C38.3805 6.13867 39.2686 6.84396 39.2686 8.12394C39.2686 9.71737 37.7535 11.6504 36.0817 12.9042C35.925 13.0087 35.8205 13.061 35.6899 13.061C35.6115 13.061 35.4809 13.0087 35.3242 12.9042ZM34.0965 6.89621C33.4434 6.89621 32.9732 7.3664 32.9732 8.12394C32.9732 9.35167 34.3316 11.2063 35.6899 12.1206C37.0744 11.2063 38.4327 9.35167 38.4327 8.12394C38.4327 7.3664 37.9625 6.89621 37.3095 6.89621C36.5258 6.89621 36.0295 7.65374 35.6899 8.35903C35.3764 7.65374 34.8801 6.89621 34.0965 6.89621Z" fill="black"/>
<path d="M48.4896 13.3482V10.4748C48.1762 10.5009 46.9484 10.5532 46.4521 10.5532C46.1648 10.5532 46.0081 10.3965 46.0081 10.1614C46.0081 9.95239 46.1648 9.79565 46.4521 9.79565H48.8815C49.1427 9.79565 49.2994 9.95239 49.2994 10.2136V13.3221C49.2994 14.5498 49.7174 14.9939 50.501 14.9939C50.8145 14.9939 51.1541 14.8894 51.3892 14.8111L51.4348 14.7927L51.5059 14.7636C51.7007 14.6837 51.8361 14.6282 51.99 14.6282C52.1989 14.6282 52.3557 14.7849 52.3557 15.02C52.3557 15.229 52.1989 15.3596 51.8332 15.5164C51.5198 15.647 51.0235 15.7514 50.501 15.7514C49.1427 15.7253 48.4896 15.02 48.4896 13.3482Z" fill="black"/>
<path d="M54.8895 15.2029C54.6544 15.2029 54.4454 15.3596 54.4454 15.5947C54.4454 15.8037 54.6544 15.9604 54.8895 15.9604H65.0248C65.2599 15.9604 65.4427 15.7776 65.4427 15.5686C65.4427 15.3596 65.2599 15.2029 65.0248 15.2029H54.8895Z" fill="black"/>
<path d="M74.6115 4.36229C74.6115 4.15331 74.4548 3.99658 74.2197 3.99658C74.0891 3.99658 73.9324 4.12719 73.854 4.23168L67.3235 15.2029C67.2713 15.2551 67.2451 15.3335 67.2451 15.438C67.2451 15.647 67.4019 15.8037 67.637 15.8037C67.7937 15.8037 67.9243 15.6992 68.0027 15.5686L74.5332 4.59739C74.5854 4.54514 74.6115 4.46678 74.6115 4.36229Z" fill="black"/>
</svg>

<svg xmlns="http://www.w3.org/2000/svg" width="80" height="20" fill="none"><path fill="#F498AD" d="M79 10a9 9 0 0 0-9-9H10a9 9 0 0 0 0 18h60a9 9 0 0 0 9-9Z"/><path fill="#000" d="M39.974 4.336c0 .157.078.288.235.366 1.358.757 2.743 2.22 2.743 5.172 0 2.952-1.359 4.467-2.743 5.224-.157.105-.235.21-.235.366 0 .21.13.34.34.34.078 0 .182 0 .365-.105 1.463-.731 3.135-2.56 3.135-5.799 0-3.239-1.672-5.068-3.135-5.799-.183-.078-.287-.104-.366-.104-.209 0-.34.13-.34.34ZM9.202 15.49a.394.394 0 0 0-.235-.366C7.61 14.367 6.224 12.852 6.224 9.9c0-2.952 1.385-4.44 2.743-5.172.157-.104.235-.209.235-.366 0-.209-.13-.34-.34-.34-.078 0-.182 0-.365.105-1.463.758-3.135 2.56-3.135 5.8 0 3.238 1.672 5.067 3.135 5.798.183.079.287.105.366.105.209 0 .34-.13.34-.34ZM13.382 7.863v2.873c0 1.672.653 2.377 2.011 2.403.523 0 1.019-.104 1.332-.235.366-.157.523-.287.523-.496 0-.235-.157-.392-.366-.392-.154 0-.29.056-.484.135l-.117.048c-.235.078-.574.183-.888.183-.784 0-1.201-.444-1.201-1.672V7.6c0-.26-.157-.418-.418-.418h-2.43c-.287 0-.444.157-.444.366 0 .235.157.392.444.392.497 0 1.724-.052 2.038-.078Z"/><path fill="#000" fill-rule="evenodd" d="M22.159 12.904c-1.672-1.227-3.187-3.187-3.187-4.78 0-1.28.888-1.985 1.828-1.985.862 0 1.385.365 1.724.783.34-.444.889-.783 1.75-.783.941 0 1.83.705 1.83 1.985 0 1.593-1.516 3.526-3.188 4.78-.157.105-.26.157-.392.157-.104 0-.209-.052-.365-.157ZM20.93 6.896c-.653 0-1.123.47-1.123 1.228 0 1.228 1.358 3.082 2.716 3.997 1.385-.915 2.743-2.77 2.743-3.997 0-.758-.47-1.228-1.123-1.228-.784 0-1.28.758-1.62 1.463-.313-.705-.81-1.463-1.593-1.463Z" clip-rule="evenodd"/><path fill="#000" d="M30.753 12.199c-.157 0-.235.104-.288.235-.235.549-.653.914-1.384.914-.68 0-1.123-.392-1.332-.914-.052-.13-.13-.235-.287-.235-.157 0-.262.13-.262.313s.079.444.183.627c.261.47.758.993 1.724.993.967 0 1.463-.522 1.724-.993.105-.156.183-.444.183-.627 0-.182-.078-.313-.261-.313Z"/><path fill="#000" fill-rule="evenodd" d="M35.324 12.904c-1.672-1.227-3.187-3.187-3.187-4.78 0-1.28.889-1.985 1.829-1.985.862 0 1.384.365 1.724.783.34-.444.888-.783 1.75-.783.94 0 1.829.705 1.829 1.985 0 1.593-1.515 3.526-3.187 4.78-.157.105-.261.157-.392.157-.078 0-.21-.052-.366-.157Zm-1.227-6.008c-.654 0-1.124.47-1.124 1.228 0 1.228 1.359 3.082 2.717 3.997 1.384-.915 2.743-2.77 2.743-3.997 0-.758-.47-1.228-1.123-1.228-.784 0-1.28.758-1.62 1.463-.314-.705-.81-1.463-1.593-1.463Z" clip-rule="evenodd"/><path fill="#000" d="M48.49 13.348v-2.873c-.314.026-1.542.078-2.038.078-.287 0-.444-.157-.444-.392 0-.209.157-.365.444-.365h2.43c.26 0 .417.156.417.418v3.108c0 1.228.418 1.672 1.202 1.672.314 0 .653-.105.888-.183l.046-.018.07-.03c.196-.08.331-.135.485-.135.209 0 .366.157.366.392 0 .209-.157.34-.523.496-.313.131-.81.235-1.332.235-1.358-.026-2.011-.731-2.011-2.403ZM54.89 15.203c-.236 0-.445.157-.445.392 0 .209.21.365.444.365h10.136c.235 0 .418-.182.418-.391 0-.21-.183-.366-.418-.366H54.889ZM74.612 4.362c0-.209-.157-.365-.392-.365-.13 0-.288.13-.366.235l-6.53 10.97c-.053.053-.079.132-.079.236 0 .209.157.366.392.366.157 0 .287-.105.366-.235l6.53-10.972c.052-.052.079-.13.079-.235Z"/></svg>
